X: 10021
T: CARRICKS RANT
Q: "Slowish"
%R: strathspey, march
B: "Edinburgh Repository of Music" v.1 p.2 #1
F: http://digital.nls.uk/special-collections-of-printed-music/pageturner.cfm?id=87776133
Z: 2015 John Chambers <jc:trillian.mit.edu>
M: C|
L: 1/8
K: D
d |\
D3F A/A/A A>F | A>BdA F/F/F F>D |\
E3F B/B/B B>A | d>fed B/B/B B>d |\
D3F A/A/A A>F |
A>Bd>A F/F/F F>D |\
G>BGB F>A F>A | E>DE>F B/B/B B |]\
e |\
d3f d/d/d d>A | B>A d>A F/F/F F>D |
e3f e/e/e e>f | g>fe>d B/B/B B>e |\
d3f d/d/d d>A | B>Ad>A F/F/F F>D |\
G>BG>B F>AF>A | E>DE>F B/B/B B |]
